Newaita-dark/actions/32/go-up.svg

<svg height="32" viewBox="0 0 32 32" width="32" xmlns="http://www.w3.org/2000/svg"><g fill="#e0e0e0"><path d="m17.199219 25.386719v-18.519531c0-.730469-.589844-1.324219-1.320313-1.324219-.730468 0-1.324218.59375-1.324218 1.324219v18.519531c0 .734375.59375 1.324219 1.324218 1.324219.730469 0 1.320313-.589844 1.320313-1.324219zm0 0"/><path d="m7.457031 17.15625 9.355469-9.355469c.515625-.515625.515625-1.355469 0-1.871093-.515625-.515626-1.355469-.515626-1.871094 0l-9.355468 9.355468c-.515626.515625-.515626 1.355469 0 1.871094.515624.515625 1.355468.515625 1.871093 0zm0 0"/><path d="m26.167969 15.285156-9.355469-9.355468c-.515625-.515626-1.351562-.515626-1.871094 0-.515625.515624-.515625 1.355468 0 1.871093l9.355469 9.355469c.519531.515625 1.355469.515625 1.871094 0 .519531-.515625.519531-1.355469 0-1.871094zm0 0"/></g></svg>

<svg xmlns="http://www.w3.org/2000/svg" xmlns:xlink="http://www.w3.org/1999/xlink" width="32px" height="32px" viewBox="0 0 32 32" version="1.1">
<g id="surface1">
     <defs>
  <style id="current-color-scheme" type="text/css">
   .ColorScheme-Text { color:#eeeeee; } .ColorScheme-Highlight { color:#424242; }
  </style>
 </defs>
<path style="fill:currentColor" class="ColorScheme-Text" d="M 17.199219 25.386719 L 17.199219 6.867188 C 17.199219 6.136719 16.609375 5.542969 15.878906 5.542969 C 15.148438 5.542969 14.554688 6.136719 14.554688 6.867188 L 14.554688 25.386719 C 14.554688 26.121094 15.148438 26.710938 15.878906 26.710938 C 16.609375 26.710938 17.199219 26.121094 17.199219 25.386719 Z M 17.199219 25.386719 "/>
     <defs>
  <style id="current-color-scheme" type="text/css">
   .ColorScheme-Text { color:#eeeeee; } .ColorScheme-Highlight { color:#424242; }
  </style>
 </defs>
<path style="fill:currentColor" class="ColorScheme-Text" d="M 7.457031 17.15625 L 16.8125 7.800781 C 17.328125 7.285156 17.328125 6.445312 16.8125 5.929688 C 16.296875 5.414062 15.457031 5.414062 14.941406 5.929688 L 5.585938 15.285156 C 5.070312 15.800781 5.070312 16.640625 5.585938 17.15625 C 6.101562 17.671875 6.941406 17.671875 7.457031 17.15625 Z M 7.457031 17.15625 "/>
     <defs>
  <style id="current-color-scheme" type="text/css">
   .ColorScheme-Text { color:#eeeeee; } .ColorScheme-Highlight { color:#424242; }
  </style>
 </defs>
<path style="fill:currentColor" class="ColorScheme-Text" d="M 26.167969 15.285156 L 16.8125 5.929688 C 16.296875 5.414062 15.460938 5.414062 14.941406 5.929688 C 14.425781 6.445312 14.425781 7.285156 14.941406 7.800781 L 24.296875 17.15625 C 24.816406 17.671875 25.652344 17.671875 26.167969 17.15625 C 26.6875 16.640625 26.6875 15.800781 26.167969 15.285156 Z M 26.167969 15.285156 "/>
</g>
</svg>
